material/.icons/material/purse-outline.svg

<svg xmlns="http://www.w3.org/2000/svg" viewBox="0 0 24 24"><path d="M19 11l1 8H4l1-8h14m-5-8h-4L8 5v4H4.7A1.65 1.65 0 003 10.5l-1 8.6A1.74 1.74 0 003.7 21h16.6a1.74 1.74 0 001.7-1.9l-1-8.6A1.65 1.65 0 0019.3 9H16V5l-2-2m-4 6V5h4v4"/></svg>

<?xml version="1.0" encoding="UTF-8"?><!DOCTYPE svg PUBLIC "-//W3C//DTD SVG 1.1//EN" "http://www.w3.org/Graphics/SVG/1.1/DTD/svg11.dtd"><svg xmlns="http://www.w3.org/2000/svg" xmlns:xlink="http://www.w3.org/1999/xlink" version="1.1" id="mdi-purse-outline" width="24" height="24" viewBox="0 0 24 24"><path d="M19,11L20,19H4L5,11H19M14,3H10L8,5V9H4.7A1.65,1.65 0 0,0 3,10.5L2,19.1A1.74,1.74 0 0,0 3.7,21H20.3A1.74,1.74 0 0,0 22,19.1L21,10.5A1.65,1.65 0 0,0 19.3,9H16V5L14,3M10,9V5H14V9" /></svg>
